usr/share/icons/biglinux-icons-material/16/devices/uav-quadcopter.svg

<svg viewBox="0 0 16 16" xmlns="http://www.w3.org/2000/svg">
<style type="text/css" id="current-color-scheme">.ColorScheme-Text{color:#dedede;}
</style>
<path d="m4.5 2a2.5 2.5 0 0 0 -2.5 2.5 2.5 2.5 0 0 0 2.5 2.5 2.5 2.5 0 0 0 1.0644531-.2421875c.2504802.4828113.4355469.9452365.4355469 1.2421875 0 .2966229-.1855452.758026-.4355469 1.2402344a2.5 2.5 0 0 0 -1.0644531-.2402344 2.5 2.5 0 0 0 -2.5 2.5 2.5 2.5 0 0 0 2.5 2.5 2.5 2.5 0 0 0 2.5-2.5 2.5 2.5 0 0 0 -.2402344-1.0625c.48384-.251984.9453353-.4375 1.2402344-.4375s.7563947.185516 1.2402344.4375a2.5 2.5 0 0 0 -.2402344 1.0625 2.5 2.5 0 0 0 2.5 2.5 2.5 2.5 0 0 0 2.5-2.5 2.5 2.5 0 0 0 -2.5-2.5 2.5 2.5 0 0 0 -1.064453.2421875c-.25048-.4828118-.435547-.9452365-.435547-1.2421875 0-.2966229.185542-.7580243.435547-1.2402344a2.5 2.5 0 0 0 1.064453.2402344 2.5 2.5 0 0 0 2.5-2.5 2.5 2.5 0 0 0 -2.5-2.5 2.5 2.5 0 0 0 -2.5 2.5 2.5 2.5 0 0 0 .2402344 1.0625c-.4838426.2519901-.9453353.4375-1.2402344.4375s-.7563928-.1855124-1.2402344-.4375a2.5 2.5 0 0 0 .2402344-1.0625 2.5 2.5 0 0 0 -2.5-2.5zm0 1a1.5 1.5 0 0 1 1.5 1.5 1.5 1.5 0 0 1 -.1015625.5351562c-.3998579-.2810195-.7792267-.5819956-1.0449219-.8886718a.5.5 0 0 0 -.3457031-.1464844.5.5 0 0 0 -.3613281.1464844.5.5 0 0 0 0 .7070312c.308027.2628358.6097771.6440527.8925781 1.046875a1.5 1.5 0 0 1 -.5390625.0996094 1.5 1.5 0 0 1 -1.5-1.5 1.5 1.5 0 0 1 1.5-1.5zm7 0a1.5 1.5 0 0 1 1.5 1.5 1.5 1.5 0 0 1 -1.5 1.5 1.5 1.5 0 0 1 -.539062-.1015625c.282564-.4023085.58489-.7823755.892578-1.0449219a.5.5 0 0 0 0-.7070312.5.5 0 0 0 -.707032 0c-.266187.3072405-.646159.6092077-1.046875.890625a1.5 1.5 0 0 1 -.099609-.5371094 1.5 1.5 0 0 1 1.5-1.5zm-7 7a1.5 1.5 0 0 1 .5390625.101562c-.2825646.402309-.5848819.782372-.8925781 1.044922a.5.5 0 0 0 0 .707032.5.5 0 0 0 .7070312 0c.2661942-.307258.6461596-.609208 1.046875-.890625a1.5 1.5 0 0 1 .0996094.537109 1.5 1.5 0 0 1 -1.5 1.5 1.5 1.5 0 0 1 -1.5-1.5 1.5 1.5 0 0 1 1.5-1.5zm7 0a1.5 1.5 0 0 1 1.5 1.5 1.5 1.5 0 0 1 -1.5 1.5 1.5 1.5 0 0 1 -1.5-1.5 1.5 1.5 0 0 1 .101562-.535156c.399858.281019.779222.581987 1.044922.888672a.5.5 0 0 0 .707032 0 .5.5 0 0 0 0-.707032c-.308027-.262834-.609777-.644052-.892578-1.046875a1.5 1.5 0 0 1 .539062-.099609z" style="fill:currentColor" class="ColorScheme-Text"/>
</svg>

<svg xmlns="http://www.w3.org/2000/svg" viewBox="0 0 16 16"><path d="M4.5 2A2.5 2.5 0 0 0 2 4.5 2.5 2.5 0 0 0 4.5 7a2.5 2.5 0 0 0 1.064-.242C5.814 7.24 6 7.703 6 8c0 .297-.186.758-.436 1.24A2.5 2.5 0 0 0 4.5 9 2.5 2.5 0 0 0 2 11.5 2.5 2.5 0 0 0 4.5 14 2.5 2.5 0 0 0 7 11.5a2.5 2.5 0 0 0-.24-1.063C7.244 10.187 7.705 10 8 10s.756.186 1.24.438A2.5 2.5 0 0 0 9 11.5a2.5 2.5 0 0 0 2.5 2.5 2.5 2.5 0 0 0 2.5-2.5A2.5 2.5 0 0 0 11.5 9a2.5 2.5 0 0 0-1.064.242C10.186 8.76 10 8.297 10 8c0-.297.186-.758.436-1.24A2.5 2.5 0 0 0 11.5 7 2.5 2.5 0 0 0 14 4.5 2.5 2.5 0 0 0 11.5 2 2.5 2.5 0 0 0 9 4.5a2.5 2.5 0 0 0 .24 1.063C8.756 5.814 8.295 6 8 6s-.756-.186-1.24-.438A2.5 2.5 0 0 0 7 4.5 2.5 2.5 0 0 0 4.5 2zm0 1A1.5 1.5 0 0 1 6 4.5a1.5 1.5 0 0 1-.102.535c-.4-.28-.779-.582-1.044-.889A.5.5 0 0 0 4.508 4a.5.5 0 0 0-.362.146.5.5 0 0 0 0 .708c.309.262.61.644.893 1.046A1.5 1.5 0 0 1 4.5 6 1.5 1.5 0 0 1 3 4.5 1.5 1.5 0 0 1 4.5 3zm7 0A1.5 1.5 0 0 1 13 4.5 1.5 1.5 0 0 1 11.5 6a1.5 1.5 0 0 1-.54-.102c.284-.402.586-.782.894-1.044a.5.5 0 0 0 0-.708.5.5 0 0 0-.708 0c-.266.308-.646.61-1.046.891A1.5 1.5 0 0 1 10 4.5 1.5 1.5 0 0 1 11.5 3zm-7 7a1.5 1.5 0 0 1 .54.102c-.284.402-.586.782-.894 1.044a.5.5 0 0 0 0 .708.5.5 0 0 0 .708 0c.266-.308.646-.61 1.046-.891a1.5 1.5 0 0 1 .1.537A1.5 1.5 0 0 1 4.5 13 1.5 1.5 0 0 1 3 11.5 1.5 1.5 0 0 1 4.5 10zm7 0a1.5 1.5 0 0 1 1.5 1.5 1.5 1.5 0 0 1-1.5 1.5 1.5 1.5 0 0 1-1.5-1.5 1.5 1.5 0 0 1 .102-.535c.4.28.779.582 1.044.889a.5.5 0 0 0 .708 0 .5.5 0 0 0 0-.708c-.309-.262-.61-.644-.893-1.046a1.5 1.5 0 0 1 .539-.1z" style="fill:currentColor;color:#dedede"/></svg>
